scoreboard.svg

<svg fill="currentColor" viewBox="0 0 24 24"><path d="M6 9h2v6H6zm10 0h2v6h-2zm5-6c1.1 0 2 .9 2 2v14c0 1.1-.9 2-2 2H3c-1.1 0-2-.9-2-2V5c0-1.1.9-2 2-2zM5 7c-.6 0-1 .4-1 1v8c0 .6.4 1 1 1h4c.6 0 1-.4 1-1V8c0-.6-.4-1-1-1zm10 0c-.6 0-1 .4-1 1v8c0 .6.4 1 1 1h4c.6 0 1-.4 1-1V8c0-.6-.4-1-1-1zm-3 4c.6 0 1-.4 1-1s-.4-1-1-1-1 .4-1 1 .4 1 1 1m0 4c.6 0 1-.4 1-1s-.4-1-1-1-1 .4-1 1 .4 1 1 1"/></svg>

<svg  viewBox="0 0 24 24" fill="currentColor"><path  d="M6 9H8V15H6V9M16 9H18V15H16V9M21 3C22.1 3 23 3.9 23 5V19C23 20.1 22.1 21 21 21H3C1.9 21 1 20.1 1 19V5C1 3.9 1.9 3 3 3H21M5 7C4.4 7 4 7.4 4 8V16C4 16.6 4.4 17 5 17H9C9.6 17 10 16.6 10 16V8C10 7.4 9.6 7 9 7H5M15 7C14.4 7 14 7.4 14 8V16C14 16.6 14.4 17 15 17H19C19.6 17 20 16.6 20 16V8C20 7.4 19.6 7 19 7H15M12 11C12.6 11 13 10.6 13 10C13 9.4 12.6 9 12 9C11.4 9 11 9.4 11 10C11 10.6 11.4 11 12 11M12 15C12.6 15 13 14.6 13 14C13 13.4 12.6 13 12 13C11.4 13 11 13.4 11 14C11 14.6 11.4 15 12 15Z"/></svg>
